X: 985
T: Biddy's Wedding
T: Posga Brigidin
R:double jig
S:985 O'Neill's Music of Ireland
B:O'Neill's 985
Z:Transcribed by Robert Thorpe (thorpe@skep.com)
Z:ABCMUS 1.0
M:6/8
K:C
c>dc c2 c|ceg gec|c>dc c2 c|B>cd dBG|
|c>dc c2 c|ceg gec|faf ege|B>cd dBG:|
c>dc g2 c|e2 c g2 c|c>dc g2 c|B>cd dBG|
|c>dc gec|edc gec|faf ege|B>cd dBG:|


